flaticon/hand-gestures/pointing-left-1.svg

<svg xmlns="http://www.w3.org/2000/svg" width="32" height="32" viewBox="0 0 24 24">
    <path d="M 22.285156 6.644531 L 20.742188 6.644531 C 20.355469 6.171875 18.984375 4.929688 17.144531 4.929688 L 17.101562 4.929688 C 15.769531 4.929688 14.828125 5.058594 13.929688 6.214844 L 1.929688 6.214844 C 0.855469 6.214844 0 7.070312 0 8.144531 C 0 9.214844 0.855469 10.070312 1.929688 10.070312 L 6.34375 9.984375 C 6.128906 10.285156 6 10.671875 6 11.058594 C 6 12.042969 6.6875 12.8125 7.585938 12.984375 C 7.542969 13.070312 7.5 13.113281 7.457031 13.199219 C 7.242188 13.671875 7.199219 14.1875 7.371094 14.65625 L 7.414062 14.742188 C 7.464844 14.898438 7.535156 15.039062 7.621094 15.171875 C 7.796875 15.464844 8.066406 15.703125 8.398438 15.855469 C 8.640625 15.976562 8.878906 16.058594 9.152344 16.070312 C 9.035156 16.441406 9.03125 16.855469 9.171875 17.269531 C 9.34375 17.785156 9.6875 18.171875 10.15625 18.386719 C 10.183594 18.398438 10.207031 18.40625 10.234375 18.417969 C 10.277344 18.4375 10.316406 18.453125 10.363281 18.46875 C 10.578125 18.550781 10.785156 18.601562 11.015625 18.601562 C 11.179688 18.601562 11.34375 18.574219 11.488281 18.523438 C 11.503906 18.519531 11.515625 18.519531 11.527344 18.515625 C 12 18.644531 13.84375 19.070312 15.429688 19.070312 C 18.429688 19.070312 19.027344 19.027344 20.699219 17.785156 L 22.285156 17.785156 C 23.273438 17.785156 24 17.058594 24 16.113281 L 24 8.355469 C 24 7.414062 23.230469 6.644531 22.285156 6.644531 Z M 1.929688 9.214844 C 1.328125 9.214844 0.855469 8.742188 0.855469 8.144531 C 0.855469 7.542969 1.328125 7.070312 1.929688 7.070312 L 13.285156 7.070312 C 13.273438 7.085938 13.265625 7.097656 13.257812 7.109375 C 12.722656 7.828125 12.152344 8.59375 11.6875 9.226562 C 11.648438 9.21875 11.613281 9.214844 11.570312 9.214844 L 7.929688 9.214844 C 7.886719 9.214844 7.886719 9.214844 7.84375 9.214844 Z M 6.898438 11.144531 C 6.898438 10.84375 6.984375 10.585938 7.199219 10.371094 C 7.371094 10.199219 7.628906 10.070312 7.886719 10.070312 L 11.070312 10.070312 C 11 10.167969 10.9375 10.253906 10.886719 10.328125 C 10.53125 10.859375 10.371094 11.3125 10.320312 11.6875 C 10.308594 11.691406 10.296875 11.695312 10.285156 11.699219 L 9.019531 12.144531 L 8.144531 12.257812 L 7.972656 12.257812 C 7.371094 12.257812 6.898438 11.742188 6.898438 11.144531 Z M 11.398438 17.65625 C 11.144531 17.742188 10.84375 17.742188 10.585938 17.613281 C 10.519531 17.582031 10.457031 17.542969 10.398438 17.5 C 10.269531 17.382812 10.167969 17.230469 10.113281 17.058594 C 10.027344 16.800781 10.027344 16.5 10.15625 16.242188 C 10.285156 15.984375 10.5 15.773438 10.757812 15.6875 C 10.820312 15.660156 10.871094 15.621094 10.917969 15.574219 L 14.785156 14.230469 C 14.84375 14.207031 14.902344 14.183594 14.957031 14.160156 L 15.128906 14.101562 C 15.257812 14.058594 15.34375 14.058594 15.472656 14.058594 C 15.644531 14.058594 15.769531 14.101562 15.941406 14.144531 C 16.199219 14.273438 16.414062 14.484375 16.5 14.742188 C 16.585938 15 16.585938 15.300781 16.457031 15.558594 C 16.328125 15.8125 16.113281 16.027344 15.855469 16.113281 Z M 11.957031 13.5 C 11.976562 13.5 12 13.5 12.019531 13.5 C 12.25 13.5 12.476562 13.457031 12.6875 13.371094 C 13.242188 13.15625 14.058594 12.601562 15 11.871094 C 15.042969 11.914062 15.042969 11.957031 15.085938 12.042969 L 15.128906 12.128906 C 15.265625 12.570312 15.128906 13.039062 14.792969 13.296875 L 10.371094 14.828125 C 10.21875 14.878906 10.074219 14.953125 9.945312 15.035156 L 9.558594 15.171875 C 9.496094 15.191406 9.4375 15.207031 9.375 15.21875 C 9.046875 15.25 8.726562 15.144531 8.503906 14.921875 C 8.398438 14.808594 8.320312 14.675781 8.269531 14.527344 L 8.230469 14.441406 C 8.164062 14.238281 8.160156 14.023438 8.207031 13.832031 C 8.222656 13.777344 8.246094 13.722656 8.273438 13.671875 C 8.398438 13.414062 8.613281 13.242188 8.871094 13.15625 L 9.34375 12.984375 C 9.378906 12.96875 9.410156 12.945312 9.441406 12.917969 L 10.242188 12.644531 C 10.472656 12.949219 10.820312 13.195312 11.207031 13.34375 C 11.441406 13.445312 11.699219 13.5 11.957031 13.5 Z M 23.144531 16.113281 C 23.144531 16.542969 22.757812 16.929688 22.285156 16.929688 L 20.613281 16.929688 C 20.484375 16.929688 20.355469 16.929688 20.269531 17.015625 C 18.730469 18.171875 18.386719 18.214844 15.386719 18.214844 C 14.621094 18.214844 13.765625 18.097656 13.0625 17.96875 L 16.070312 16.929688 C 16.585938 16.757812 16.972656 16.414062 17.1875 15.941406 C 17.398438 15.515625 17.441406 14.957031 17.269531 14.484375 C 17.101562 13.972656 16.757812 13.585938 16.285156 13.371094 C 16.160156 13.308594 16.023438 13.261719 15.882812 13.230469 C 16.074219 12.804688 16.109375 12.304688 15.941406 11.828125 L 15.898438 11.742188 C 15.832031 11.589844 15.746094 11.433594 15.640625 11.292969 C 16.773438 10.308594 17.777344 9.230469 18.042969 8.613281 C 18.128906 8.398438 18.042969 8.144531 17.828125 8.058594 C 17.613281 7.972656 17.355469 8.058594 17.269531 8.269531 C 17.058594 8.792969 16.007812 9.886719 14.875 10.859375 C 14.828125 10.875 14.785156 10.898438 14.742188 10.929688 C 13.800781 11.742188 12.898438 12.34375 12.34375 12.558594 C 12.050781 12.664062 11.605469 12.570312 11.261719 12.371094 C 11.015625 12.027344 11.105469 11.476562 11.570312 10.800781 C 12.085938 10.070312 13.457031 8.230469 14.484375 6.898438 C 15.214844 5.871094 15.8125 5.785156 17.144531 5.785156 L 17.1875 5.785156 C 18.941406 5.785156 20.230469 7.328125 20.230469 7.328125 C 20.3125 7.457031 20.441406 7.5 20.570312 7.5 L 22.285156 7.5 C 22.757812 7.5 23.144531 7.886719 23.144531 8.355469 Z M 23.144531 16.113281"/>
</svg>

<svg xmlns="http://www.w3.org/2000/svg" width="32" height="32" viewBox="0 0 24 24">
    <path d="M22.285 6.645h-1.543c-.387-.473-1.758-1.715-3.597-1.715h-.043c-1.332 0-2.274.129-3.172 1.285h-12C.855 6.215 0 7.07 0 8.145c0 1.07.855 1.925 1.93 1.925l4.414-.086A1.88 1.88 0 0 0 6 11.06c0 .984.688 1.754 1.586 1.925-.043.086-.086.13-.129.215-.215.473-.258.989-.086 1.457l.043.086c.05.156.121.297.207.43.176.293.445.531.777.683.243.122.48.204.754.215-.117.371-.12.785.02 1.2.172.515.515.902.984 1.117l.078.031c.043.02.082.035.13.05.214.083.421.134.652.134.164 0 .328-.028.472-.079.016-.003.028-.003.04-.007.472.129 2.316.554 3.902.554 3 0 3.597-.043 5.27-1.285h1.585c.988 0 1.715-.726 1.715-1.672V8.355c0-.94-.77-1.71-1.715-1.71zM1.93 9.215a1.063 1.063 0 0 1-1.075-1.07c0-.602.473-1.075 1.075-1.075h11.355a.785.785 0 0 0-.027.04c-.535.718-1.106 1.484-1.57 2.117a.568.568 0 0 0-.118-.012H7.844zm4.968 1.93c0-.301.086-.56.301-.774.172-.172.43-.3.688-.3h3.183c-.07.097-.133.183-.183.257-.356.531-.516.985-.567 1.36l-.035.011-1.265.446-.875.113h-.172c-.602 0-1.075-.516-1.075-1.113zm4.5 6.511a1.07 1.07 0 0 1-1-.156 1.018 1.018 0 0 1-.285-.441 1.079 1.079 0 0 1 .043-.817c.13-.258.344-.469.602-.555a.518.518 0 0 0 .16-.113l3.867-1.344c.059-.023.117-.046.172-.07l.172-.058c.129-.043.215-.043.344-.043.172 0 .297.043.468.086.258.128.473.34.559.597.086.258.086.559-.043.817-.129.254-.344.468-.602.554zm.559-4.156h.063c.23 0 .457-.043.668-.129.554-.215 1.37-.77 2.312-1.5.043.043.043.086.086.172l.043.086c.137.441 0 .91-.336 1.168l-4.422 1.531c-.152.05-.297.125-.426.207l-.386.137c-.063.02-.121.035-.184.047a1.08 1.08 0 0 1-.871-.297 1.093 1.093 0 0 1-.234-.395l-.04-.086a1.12 1.12 0 0 1-.023-.609.816.816 0 0 1 .066-.16.998.998 0 0 1 .598-.516l.473-.172a.393.393 0 0 0 .097-.066l.801-.273c.23.304.578.55.965.699.234.101.492.156.75.156zm11.188 2.613c0 .43-.387.817-.86.817h-1.672c-.129 0-.258 0-.343.086-1.54 1.156-1.883 1.199-4.883 1.199-.766 0-1.621-.117-2.325-.246l3.008-1.04a1.826 1.826 0 0 0 1.117-.988c.211-.425.254-.984.083-1.457a1.812 1.812 0 0 0-.985-1.113 1.754 1.754 0 0 0-.402-.14c.191-.426.226-.926.058-1.403l-.043-.086a2.259 2.259 0 0 0-.257-.449c1.132-.984 2.136-2.063 2.402-2.68.086-.215 0-.468-.215-.554-.215-.086-.473 0-.558.21-.211.524-1.262 1.618-2.395 2.59a.484.484 0 0 0-.133.07c-.941.813-1.844 1.415-2.398 1.63-.293.105-.739.011-1.082-.188-.246-.344-.157-.894.308-1.57.516-.73 1.887-2.57 2.914-3.903.73-1.027 1.329-1.113 2.66-1.113h.044c1.753 0 3.042 1.543 3.042 1.543.082.129.211.172.34.172h1.715c.473 0 .86.387.86.855zm0 0"/>
</svg>
